X: 278
T: Din Tarrant's
M: 4/4
L: 1/8
R: reel
K: Amin
AB |: c2 A2 a2 A2 | c2 d2 eged | c2 A2 a2 A2 | BAGB d2 ^cd |
c2 A2 a2 A2 | c2 d2 eged | c2 d2 ed c2 |1 A4 A3B :|2 A8 ||
|: e2 de a2 g2 | e2 d2 eged | c2 A2 a2 A2 | BAGB d2 ^cd |
e2 de a2 g2 | e2 d2 eged | c2 d2 ed c2 | A8 :|
F: Transcription by myself

